packages/foundations/assets/icons/functional/images/security/fingerprint_28.svg

<svg width="28" height="28" viewBox="0 0 28 28" fill="none" xmlns="http://www.w3.org/2000/svg">
<g clip-path="url(#clip0_187_226)">
<path fill-rule="evenodd" clip-rule="evenodd" d="M14.1553 12.6446C16.2221 12.6446 18.0237 14.1164 18.4393 16.142C18.7009 17.4274 19.6984 18.424 20.9812 18.683C22.0224 18.8939 22.9491 19.4731 23.5896 20.314C23.6482 20.3919 23.7042 20.4698 23.7576 20.5511C24.0262 20.9528 23.9186 21.4961 23.5169 21.7648C23.1136 22.0334 22.5711 21.9266 22.3033 21.5241C22.2692 21.4734 22.2333 21.4235 22.1966 21.3754C21.8081 20.8653 21.2673 20.5275 20.6329 20.3997C18.6598 20.0007 17.1259 18.4669 16.7243 16.4929C16.4749 15.2775 15.3943 14.3955 14.1553 14.3955C13.9794 14.3955 13.8001 14.4139 13.6373 14.448C12.9452 14.5871 12.3537 14.9853 11.9652 15.5698C11.5776 16.1551 11.4402 16.8569 11.5802 17.5446C11.9809 19.5178 12.9417 21.3124 14.3557 22.7343C14.7521 23.1324 15.7102 23.9601 16.1232 24.262C16.5134 24.5473 16.5983 25.095 16.3131 25.4844C16.1416 25.7197 15.8756 25.8431 15.6061 25.8431C15.4258 25.8423 15.2456 25.788 15.0898 25.6743C14.5692 25.2928 13.5358 24.3897 13.1158 23.968C11.4586 22.3029 10.3351 20.202 9.86519 17.8929C9.63244 16.7458 9.86082 15.5776 10.5066 14.602C11.1532 13.6273 12.1402 12.9631 13.2864 12.7321C13.5594 12.6761 13.8613 12.6446 14.1553 12.6446ZM15.0102 16.8446C15.5527 19.5072 17.6238 21.5749 20.2873 22.113C20.7607 22.2084 21.0678 22.6712 20.9716 23.1446C20.8876 23.5602 20.5227 23.8464 20.1149 23.8464C20.0572 23.8473 19.9986 23.842 19.9399 23.8298C16.5861 23.1516 13.9786 20.5468 13.2952 17.1938C13.1989 16.7204 13.5043 16.2584 13.9777 16.1621C14.4528 16.0668 14.9131 16.3704 15.0102 16.8446ZM8.31469 19.1336C8.60519 20.1731 9.11444 21.224 9.78557 22.1699C10.0656 22.5636 9.97282 23.1105 9.57819 23.3905C9.42507 23.4999 9.24832 23.5524 9.07244 23.5524C8.79857 23.5515 8.52819 23.4238 8.35844 23.1831C7.55957 22.0579 6.97769 20.8548 6.62944 19.6053C6.49907 19.1398 6.77119 18.6567 7.23669 18.5273C7.70307 18.3969 8.18519 18.669 8.31469 19.1336ZM14.1518 5.65688C15.2569 5.65688 16.3533 5.81788 17.4112 6.1355C17.8741 6.27463 18.1366 6.76288 17.9974 7.22488C17.8583 7.68863 17.3709 7.9485 16.9072 7.812C16.0129 7.5425 15.0846 7.40688 14.1509 7.40688C8.83882 7.40688 4.51719 11.7285 4.51719 17.0415C4.51719 17.3758 4.53469 17.7074 4.56882 18.0355C4.61869 18.5168 4.26957 18.9464 3.78832 18.9971C3.75769 18.9998 3.72707 19.0015 3.69732 19.0015C3.25544 19.0006 2.87569 18.6655 2.82844 18.2166C2.78819 17.829 2.76807 17.4335 2.76807 17.0415C2.76807 10.7642 7.87457 5.65688 14.1518 5.65688ZM20.6522 7.70175C22.8484 9.23125 24.4418 11.4905 25.1401 14.063C25.5189 15.4595 24.6912 16.9033 23.2956 17.2839C23.1439 17.3241 22.9915 17.3508 22.8398 17.3641L22.6121 17.3739L22.4407 17.3683C21.3492 17.2959 20.3748 16.5449 20.0747 15.4376C19.3511 12.7698 16.9159 10.9069 14.1527 10.9069C11.1068 10.9069 8.49494 13.1801 8.07669 16.1945C8.01019 16.6731 7.56394 17.0074 7.08969 16.9409C6.61107 16.8753 6.27682 16.4325 6.34244 15.9539C6.88057 12.0794 10.2379 9.15688 14.1518 9.15688C17.7026 9.15688 20.8324 11.5509 21.7634 14.9791C21.8894 15.4438 22.3707 15.7203 22.8397 15.5943C23.3017 15.4683 23.5782 14.987 23.4513 14.5206C22.8607 12.3454 21.5114 10.4326 19.6521 9.13763C19.2557 8.862 19.1586 8.31688 19.4342 7.91963C19.7098 7.52238 20.2558 7.427 20.6522 7.70175ZM14.1518 2.15688C17.4261 2.15688 20.5209 3.2025 23.1346 5.18263C23.5196 5.474 23.5957 6.02263 23.3043 6.40763C23.0121 6.79175 22.4626 6.86875 22.0784 6.5765C19.7711 4.83 17.0297 3.906 14.1518 3.906C11.2739 3.906 8.51944 4.83088 6.21907 6.57913C6.06069 6.69988 5.87432 6.75763 5.69057 6.75763C5.42632 6.7585 5.16469 6.6395 4.99319 6.41288C4.70094 6.02788 4.77532 5.47925 5.16032 5.187C7.76782 3.20425 10.8776 2.15688 14.1518 2.15688Z" fill="#1A1C1F"/>
</g>
<defs>
<clipPath id="clip0_187_226">
<rect width="28" height="28" fill="white"/>
</clipPath>
</defs>
</svg>

<svg xmlns="http://www.w3.org/2000/svg" width="28" height="28" fill="none"><g clip-path="url(#a)"><path fill="#1A1C1F" fill-rule="evenodd" d="M14.155 12.645a4.39 4.39 0 0 1 4.284 3.497 3.245 3.245 0 0 0 2.542 2.541 4.37 4.37 0 0 1 2.777 1.868.875.875 0 1 1-1.455.973q-.051-.075-.106-.149a2.58 2.58 0 0 0-1.564-.975 4.99 4.99 0 0 1-3.909-3.907 2.63 2.63 0 0 0-2.569-2.097 2.6 2.6 0 0 0-.518.052 2.6 2.6 0 0 0-1.672 1.122 2.61 2.61 0 0 0-.385 1.975 10.23 10.23 0 0 0 2.776 5.19 22 22 0 0 0 1.767 1.527.875.875 0 1 1-1.033 1.412c-.52-.381-1.554-1.284-1.974-1.706a11.97 11.97 0 0 1-3.25-6.075 4.35 4.35 0 0 1 .64-3.291 4.34 4.34 0 0 1 2.78-1.87c.273-.056.575-.087.87-.087m.855 4.2a6.74 6.74 0 0 0 5.277 5.268.875.875 0 0 1-.347 1.717 8.49 8.49 0 0 1-6.645-6.636.875.875 0 1 1 1.715-.35m-6.695 2.289c.29 1.04.8 2.09 1.47 3.036a.875.875 0 1 1-1.427 1.013 11.5 11.5 0 0 1-1.729-3.578.874.874 0 1 1 1.686-.471m5.837-13.477c1.105 0 2.201.16 3.26.478a.875.875 0 1 1-.505 1.677 9.6 9.6 0 0 0-2.756-.405c-5.312 0-9.634 4.322-9.634 9.635q0 .501.052.993a.876.876 0 0 1-1.74.182c-.04-.388-.06-.784-.06-1.175 0-6.278 5.106-11.385 11.383-11.385m6.5 2.045a11.4 11.4 0 0 1 4.488 6.361 2.63 2.63 0 0 1-2.3 3.301l-.228.01-.171-.006a2.63 2.63 0 0 1-2.366-1.93 6.15 6.15 0 0 0-5.922-4.531c-3.046 0-5.658 2.273-6.076 5.288a.876.876 0 0 1-1.734-.24c.538-3.876 3.895-6.798 7.809-6.798 3.55 0 6.68 2.394 7.611 5.822a.88.88 0 0 0 1.077.615.876.876 0 0 0 .611-1.073 9.66 9.66 0 0 0-3.799-5.383.875.875 0 0 1 1-1.436m-6.5-5.545c3.274 0 6.369 1.045 8.983 3.026a.875.875 0 1 1-1.057 1.393 13.04 13.04 0 0 0-7.926-2.67c-2.878 0-5.633.925-7.933 2.673a.87.87 0 0 1-.528.179.875.875 0 0 1-.53-1.57 14.74 14.74 0 0 1 8.99-3.031" clip-rule="evenodd"/></g><defs><clipPath id="a"><path fill="#fff" d="M0 0h28v28H0z"/></clipPath></defs></svg>
